X:457
T:Honey Moon,The. RH.457.5
R:reel
S:Rev.R.Harrison’s MS,c1815,Cumbria
N:457.5?
O:England
A:Temple Sowerby,Cumbria
Z:vmp.Simon Wilson. Review PJH, 2008.
M:2/4
L:1/8
Q:2/4=90
K:D
Addd|dffa|gfed|ceA2|Addd|dffa|gfge|d2d2||!
dAA2|B>dd2|AFED|D>EE2|d>AA2|Bcde|f>ge>f|d2d2|]

